!!!OTL: "Der Kaefig" O I HERZENSSCHOENS SCHOZZERL
!!!ARE: Europa, Mitteleuropa, Deutschland, Boehmen
!!!SCT: Z1228
!!!YEM: Copyright 1995, estate of Helmut Schaffrath.
**kern
*ICvox
*Ivox
*M3/4
*k[f#]
*G:
{8dd
8cc
=1
4b
4b
4b
=2
4.b
8cc}
{8dd
8ee
=3
4.dd
8cc
4b
=4
2a}
{8dd
8cc
=5
4b
4b
8a
8a
=6
4.b
8cc}
{8dd
8ee
=7
4dd
4cc
4b
=8
2a}
{8a
8b
=9
4cc
4cc
4cc
=10
4ee
4ee}
{8dd
8cc
=11
4b
4b
8cc
8ee
=12
4dd
4r}
{8dd
8cc
=13
8dd
8ee
8dd
8cc
8b
8cc
=14
8dd
8ee
8dd
8cc}
{8b
8cc
=15
8dd
8cc
4b
4a
=16
4b
4b
4b
=17
2b}
==
!!!AGN: Liebes - Lied
!!!ONB: ESAC (Essen Associative Code) Database: ZUCCAL
!!!AMT: simple triple
!!!AIN: vox
!!!EED: Helmut Schaffrath
!!!EEV: 1.0
*-
